; G-Code generated by Simplify3D(R) Version 4.1.2
; Nov 24, 2019 at 2:41:30 AM
; Settings Summary
;   processName,Process1
;   applyToModels,Caddx_box_rev1,Caddx_cover,Pi_Cam_Mount__Artillery_Sidewinder_X1,LiPo_Stabi,firstindoor_UL
;   profileName,FF Sidewinder Dev (modified)
;   profileVersion,2019-08-07 04:26:04
;   baseProfile,Creality CR-10(2)
;   printMaterial,PLA
;   printQuality,Regular
;   printExtruders,
;   extruderName,Primary Extruder
;   extruderToolheadNumber,0
;   extruderDiameter,0.6
;   extruderAutoWidth,1
;   extruderWidth,0.72
;   extrusionMultiplier,0.98
;   extruderUseRetract,1
;   extruderRetractionDistance,2.1
;   extruderExtraRestartDistance,0
;   extruderRetractionZLift,0.5
;   extruderRetractionSpeed,3500
;   extruderUseCoasting,1
;   extruderCoastingDistance,0.2
;   extruderUseWipe,1
;   extruderWipeDistance,3
;   primaryExtruder,0
;   layerHeight,0.2
;   topSolidLayers,5
;   bottomSolidLayers,3
;   perimeterOutlines,3
;   printPerimetersInsideOut,1
;   startPointOption,2
;   startPointOriginX,0
;   startPointOriginY,500
;   sequentialIslands,0
;   spiralVaseMode,0
;   firstLayerHeightPercentage,134
;   firstLayerWidthPercentage,115
;   firstLayerUnderspeed,0.4
;   useRaft,0
;   raftExtruder,0
;   raftTopLayers,1
;   raftBaseLayers,1
;   raftOffset,3
;   raftSeparationDistance,0.34
;   raftTopInfill,100
;   aboveRaftSpeedMultiplier,0.3
;   useSkirt,1
;   skirtExtruder,0
;   skirtLayers,2
;   skirtOutlines,3
;   skirtOffset,3
;   usePrimePillar,0
;   primePillarExtruder,999
;   primePillarWidth,12
;   primePillarLocation,7
;   primePillarSpeedMultiplier,1
;   useOozeShield,0
;   oozeShieldExtruder,999
;   oozeShieldOffset,2
;   oozeShieldOutlines,1
;   oozeShieldSidewallShape,1
;   oozeShieldSidewallAngle,30
;   oozeShieldSpeedMultiplier,1
;   infillExtruder,0
;   internalInfillPattern,Rectilinear
;   externalInfillPattern,Rectilinear
;   infillPercentage,15
;   outlineOverlapPercentage,25
;   infillExtrusionWidthPercentage,110
;   minInfillLength,5
;   infillLayerInterval,1
;   internalInfillAngles,45,-45
;   overlapInternalInfillAngles,0
;   externalInfillAngles,45,-45
;   generateSupport,1
;   supportExtruder,0
;   supportInfillPercentage,30
;   supportExtraInflation,0.6
;   supportBaseLayers,3
;   denseSupportExtruder,0
;   denseSupportLayers,3
;   denseSupportInfillPercentage,80
;   supportLayerInterval,1
;   supportHorizontalPartOffset,0.4
;   supportUpperSeparationLayers,1
;   supportLowerSeparationLayers,1
;   supportType,0
;   supportGridSpacing,2
;   maxOverhangAngle,75
;   supportAngles,0
;   temperatureName,Primary Extruder,Heated Bed
;   temperatureNumber,0,0
;   temperatureSetpointCount,2,2
;   temperatureSetpointLayers,1,3,1,3
;   temperatureSetpointTemperatures,215,210,70,70
;   temperatureStabilizeAtStartup,1,1
;   temperatureHeatedBed,0,1
;   fanLayers,1,3,4,5
;   fanSpeeds,0,40,50,60
;   blipFanToFullPower,1
;   adjustSpeedForCooling,1
;   minSpeedLayerTime,15
;   minCoolingSpeedSlowdown,20
;   increaseFanForCooling,0
;   minFanLayerTime,45
;   maxCoolingFanSpeed,100
;   increaseFanForBridging,1
;   bridgingFanSpeed,60
;   use5D,1
;   relativeEdistances,1
;   allowEaxisZeroing,1
;   independentExtruderAxes,0
;   includeM10123,0
;   stickySupport,1
;   applyToolheadOffsets,0
;   gcodeXoffset,0
;   gcodeYoffset,0
;   gcodeZoffset,0
;   overrideMachineDefinition,1
;   machineTypeOverride,0
;   strokeXoverride,300
;   strokeYoverride,300
;   strokeZoverride,400
;   originOffsetXoverride,0
;   originOffsetYoverride,0
;   originOffsetZoverride,0
;   homeXdirOverride,-1
;   homeYdirOverride,-1
;   homeZdirOverride,-1
;   flipXoverride,1
;   flipYoverride,-1
;   flipZoverride,1
;   toolheadOffsets,0,0|0,0|0,0|0,0|0,0|0,0
;   overrideFirmwareConfiguration,1
;   firmwareTypeOverride,RepRap (Marlin/Repetier/Sprinter)
;   GPXconfigOverride,r2
;   baudRateOverride,115200
;   overridePrinterModels,1
;   printerModelsOverride
;   startingGcode,G28 ; home all axes,M117 Purge extruder,G92 E0 ; reset extruder,G1 Z1.0 F3000 ; move z up little to prevent scratching of surface,G1 X2 Y20 Z0.3 F5000.0 ; move to start-line position,G1 X2 Y200.0 Z0.3 F1500.0 E15 ; draw 1st line,G1 X2 Y200.0 Z0.4 F5000.0 ; move to side a little,G1 X2 Y20 Z0.4 F1500.0 E30 ; draw 2nd line,; G1 E27 F3000 ; retract filament 3mm,G92 E0 ; reset extruder,; done purging extruder,G1 Z1.0 F3000 ; move z up little to prevent scratching of surface,
;   layerChangeGcode,
;   retractionGcode,
;   toolChangeGcode,
;   endingGcode,M104 S0; turn off extruder,M140 S0 ; turn off bed,G1 X0 Y300 F1000 ; prepare for part removal,M84 ; disable motors,M106 S0 ; turn off fan,
;   exportFileFormat,gcode
;   celebration,0
;   celebrationSong,Star Wars
;   postProcessing,
;   defaultSpeed,3000
;   outlineUnderspeed,0.5
;   solidInfillUnderspeed,0.7
;   supportUnderspeed,0.8
;   rapidXYspeed,5000
;   rapidZspeed,1000
;   minBridgingArea,50
;   bridgingExtraInflation,0
;   bridgingExtrusionMultiplier,1
;   bridgingSpeedMultiplier,1
;   useFixedBridgingAngle,0
;   fixedBridgingAngle,0
;   applyBridgingToPerimeters,1
;   filamentDiameters,1.75|1.75|1.75|1.75|1.75|1.75
;   filamentPricesPerKg,17.99|46|46|46|46|46
;   filamentDensities,1.25|1.25|1.25|1.25|1.25|1.25
;   useMinPrintHeight,0
;   minPrintHeight,100.8
;   useMaxPrintHeight,0
;   maxPrintHeight,14
;   useDiaphragm,0
;   diaphragmLayerInterval,20
;   robustSlicing,1
;   mergeAllIntoSolid,0
;   onlyRetractWhenCrossingOutline,0
;   retractBetweenLayers,1
;   useRetractionMinTravel,1
;   retractionMinTravel,3
;   retractWhileWiping,1
;   onlyWipeOutlines,1
;   avoidCrossingOutline,1
;   maxMovementDetourFactor,3
;   toolChangeRetractionDistance,0
;   toolChangeExtraRestartDistance,0
;   toolChangeRetractionSpeed,600
;   externalThinWallType,0
;   internalThinWallType,1
;   thinWallAllowedOverlapPercentage,20
;   singleExtrusionMinLength,1
;   singleExtrusionMinPrintingWidthPercentage,50
;   singleExtrusionMaxPrintingWidthPercentage,200
;   singleExtrusionEndpointExtension,0.2
;   horizontalSizeCompensation,0
G90
M83
M106 S0
M140 S70
M190 S70
M104 S215 T0
M109 S215 T0
G28 ; home all axes
M117 Purge extruder
G92 E0 ; reset extruder
G1 Z1.0 F3000 ; move z up little to prevent scratching of surface
G1 X2 Y20 Z0.3 F5000.0 ; move to start-line position
G1 X2 Y200.0 Z0.3 F1500.0 E15 ; draw 1st line
G1 X2 Y200.0 Z0.4 F5000.0 ; move to side a little
G1 X2 Y20 Z0.4 F1500.0 E30 ; draw 2nd line
; G1 E27 F3000 ; retract filament 3mm
G92 E0 ; reset extruder
; done purging extruder
G1 Z1.0 F3000 ; move z up little to prevent scratching of surface
; process Process1
; layer 1, Z = 0.268
T0
G1 E-2.1000 F3500
; feature skirt
; tool H0.268 W0.828
G1 Z0.500 F1000
G1 X75.565 Y77.736 F5000
G1 Z0.268 F1000
G1 E2.1000 F3500
G1 X75.655 Y77.660 E0.0107 F1200
G1 X76.141 Y77.336 E0.0527
G1 X76.246 Y77.283 E0.0107
G1 X76.315 Y77.239 E0.0074
G1 X76.531 Y77.116 E0.0224
G1 X80.029 Y75.343 E0.3546
G1 X80.116 Y75.306 E0.0086
G1 X80.223 Y75.251 E0.0109
G1 X80.777 Y75.045 E0.0534
G1 X80.881 Y75.019 E0.0097
G1 X80.949 Y74.995 E0.0065
G1 X81.200 Y74.921 E0.0237
G1 X85.148 Y73.972 E0.3670
G1 X85.198 Y73.966 E0.0046
G1 X85.241 Y73.955 E0.0039
G1 X85.837 Y73.883 E0.0543
G1 X89.543 Y73.874 E0.3350
G1 X89.759 Y73.850 E0.0196
G1 X90.337 Y73.851 E0.0523
G1 X90.511 Y73.871 E0.0159
G1 X90.565 Y73.871 E0.0048
G1 X91.161 Y73.941 E0.0543
G1 X91.301 Y73.974 E0.0130
G1 X91.409 Y73.993 E0.0100
G1 X95.228 Y74.888 E0.3546
G1 X95.504 Y74.970 E0.0261
G1 X95.555 Y74.988 E0.0049
G1 X95.629 Y75.006 E0.0069
G1 X96.185 Y75.209 E0.0534
G1 X96.303 Y75.268 E0.0120
G1 X96.400 Y75.310 E0.0095
G1 X99.908 Y77.063 E0.3546
G1 X100.146 Y77.199 E0.0248
G1 X100.199 Y77.233 E0.0057
G1 X100.278 Y77.273 E0.0079
G1 X100.765 Y77.593 E0.0527
G1 X100.865 Y77.677 E0.0118
G1 X100.952 Y77.741 E0.0098
G1 X103.960 Y80.257 E0.3546
G1 X104.057 Y80.347 E0.0119
G1 X104.180 Y80.450 E0.0146
G1 X104.585 Y80.878 E0.0532
G1 X104.595 Y80.891 E0.0015
G1 X104.608 Y80.905 E0.0018
G1 X104.823 Y81.156 E0.0299
G1 X106.409 Y83.282 E0.2399
G1 X107.998 Y81.154 E0.2401
G1 X108.059 Y81.082 E0.0085
G1 X108.130 Y80.987 E0.0108
G1 X108.534 Y80.556 E0.0534
G1 X108.619 Y80.485 E0.0100
G1 X108.671 Y80.431 E0.0067
G1 X108.860 Y80.256 E0.0234
G1 X111.869 Y77.739 E0.3546
G1 X111.949 Y77.680 E0.0090
G1 X112.045 Y77.600 E0.0113
G1 X112.538 Y77.274 E0.0535
G1 X112.622 Y77.231 E0.0086
G1 X112.677 Y77.196 E0.0059
G1 X112.914 Y77.062 E0.0246
G1 X116.422 Y75.308 E0.3546
G1 X116.517 Y75.268 E0.0094
G1 X116.639 Y75.206 E0.0123
G1 X117.204 Y75.001 E0.0543
G1 X117.274 Y74.984 E0.0066
G1 X117.320 Y74.968 E0.0044
G1 X117.594 Y74.887 E0.0258
G1 X121.412 Y73.992 E0.3546
G1 X121.700 Y73.942 E0.0264
G1 X121.744 Y73.937 E0.0040
G1 X121.803 Y73.923 E0.0054
G1 X122.391 Y73.856 E0.0535
G1 X122.534 Y73.856 E0.0130
G1 X122.650 Y73.850 E0.0104
G1 X126.572 Y73.861 E0.3546
G1 X126.695 Y73.868 E0.0112
G1 X126.848 Y73.869 E0.0138
G1 X127.434 Y73.939 E0.0534
G1 X127.471 Y73.947 E0.0034
G1 X127.501 Y73.951 E0.0028
G1 X127.809 Y74.005 E0.0282
G1 X131.622 Y74.922 E0.3546
G1 X131.877 Y74.997 E0.0240
G1 X131.935 Y75.018 E0.0056
G1 X132.027 Y75.040 E0.0086
G1 X132.591 Y75.248 E0.0544
G1 X132.705 Y75.307 E0.0116
G1 X132.794 Y75.345 E0.0087
G1 X136.292 Y77.118 E0.3546
G1 X136.511 Y77.243 E0.0228
G1 X136.577 Y77.285 E0.0071
G1 X136.682 Y77.339 E0.0107
G1 X137.174 Y77.667 E0.0535
G1 X137.262 Y77.743 E0.0105
G1 X137.336 Y77.797 E0.0083
G1 X140.330 Y80.330 E0.3546
G1 X140.505 Y80.493 E0.0216
G1 X140.566 Y80.555 E0.0079
G1 X140.667 Y80.642 E0.0121
G1 X141.070 Y81.075 E0.0535
G1 X141.135 Y81.164 E0.0100
G1 X141.191 Y81.230 E0.0078
G1 X143.360 Y84.171 E0.3304
G1 X143.337 Y84.096 E0.0071
G1 X143.336 Y84.089 E0.0007
G1 X143.328 Y84.065 E0.0022
G1 X143.171 Y83.160 E0.0831
G1 X143.037 Y82.400 E0.0697
G1 X143.036 Y82.380 E0.0019
G1 X143.034 Y82.371 E0.0008
G1 X143.020 Y82.025 E0.0312
G1 X143.007 Y81.743 E0.0256
G1 X143.007 Y81.736 E0.0006
G1 X143.006 Y81.715 E0.0019
G1 X143.086 Y80.792 E0.0838
G1 X143.150 Y80.026 E0.0694
G1 X143.154 Y80.009 E0.0016
G1 X143.155 Y80.002 E0.0006
G1 X143.228 Y79.668 E0.0309
G1 X143.289 Y79.384 E0.0262
G1 X143.291 Y79.379 E0.0005
G1 X143.295 Y79.362 E0.0016
G1 X143.611 Y78.480 E0.0846
G1 X143.867 Y77.760 E0.0691
G1 X143.876 Y77.743 E0.0018
G1 X144.033 Y77.436 E0.0312
G1 X144.168 Y77.172 E0.0268
G1 X144.174 Y77.160 E0.0012
G1 X144.712 Y76.377 E0.0860
G1 X145.140 Y75.753 E0.0683
G1 X145.148 Y75.742 E0.0012
G1 X145.376 Y75.488 E0.0309
G1 X145.581 Y75.260 E0.0277
G1 X145.586 Y75.255 E0.0007
G1 X146.333 Y74.611 E0.0891
G1 X146.882 Y74.139 E0.0654
G1 X146.891 Y74.132 E0.0011
G1 X146.896 Y74.128 E0.0006
G1 X147.164 Y73.952 E0.0289
G1 X147.428 Y73.778 E0.0286
G1 X147.434 Y73.775 E0.0006
G1 X147.440 Y73.771 E0.0007
G1 X148.406 Y73.302 E0.0971
G1 X148.983 Y73.021 E0.0581
G1 X149.293 Y72.917 E0.0295
G1 X149.600 Y72.814 E0.0292
G1 X149.619 Y72.810 E0.0018
G1 X149.626 Y72.808 E0.0007
G1 X149.771 Y72.780 E0.0133
G1 X150.991 Y72.540 E0.1124
G1 X151.285 Y72.481 E0.0271
G1 X151.292 Y72.480 E0.0006
G1 X151.299 Y72.479 E0.0006
G1 X151.625 Y72.458 E0.0296
G1 X151.946 Y72.437 E0.0290
G1 X151.954 Y72.437 E0.0008
G1 X151.962 Y72.437 E0.0006
G1 X152.257 Y72.456 E0.0268
G1 X152.451 Y72.469 E0.0176
G1 X153.666 Y72.546 E0.1100
G1 X154.014 Y72.614 E0.0321
G1 X154.309 Y72.671 E0.0271
G1 X155.405 Y73.036 E0.1044
G1 X155.421 Y73.041 E0.0015
G1 X155.465 Y73.056 E0.0042
G1 X155.550 Y73.085 E0.0081
G1 X155.566 Y73.090 E0.0015
G1 X155.963 Y73.225 E0.0379
G1 X156.290 Y73.385 E0.0329
G1 X156.546 Y73.510 E0.0258
G1 X156.739 Y73.604 E0.0194
G1 X156.739 Y73.636 E0.0029
G1 X157.163 Y73.915 E0.0458
G1 X157.971 Y74.443 E0.0873
G1 X157.976 Y74.447 E0.0006
G1 X158.191 Y74.632 E0.0256
G1 X158.469 Y74.871 E0.0331
G1 X158.479 Y74.880 E0.0012
G1 X158.991 Y75.451 E0.0694
G1 X159.619 Y76.148 E0.0847
G1 X159.628 Y76.161 E0.0014
G1 X159.631 Y76.165 E0.0005
G1 X159.797 Y76.406 E0.0264
G1 X159.991 Y76.687 E0.0309
G1 X159.993 Y76.692 E0.0006
G1 X160.003 Y76.706 E0.0015
G1 X160.356 Y77.396 E0.0701
G1 X160.778 Y78.216 E0.0834
G1 X160.785 Y78.236 E0.0020
G1 X160.788 Y78.243 E0.0007
G1 X160.886 Y78.517 E0.0263
G1 X160.999 Y78.829 E0.0300
G1 X161.001 Y78.839 E0.0009
G1 X161.009 Y78.861 E0.0021
G1 X161.173 Y79.616 E0.0699
G1 X161.371 Y80.512 E0.0830
G1 X161.373 Y80.536 E0.0022
G1 X161.375 Y80.545 E0.0008
G1 X161.398 Y80.826 E0.0255
G1 X161.428 Y81.164 E0.0307
G1 X161.428 Y81.175 E0.0010
G1 X161.430 Y81.199 E0.0022
G1 X161.396 Y81.963 E0.0691
G1 X161.358 Y82.885 E0.0834
G1 X161.354 Y82.910 E0.0024
G1 X161.353 Y82.918 E0.0007
G1 X161.307 Y83.185 E0.0245
G1 X161.247 Y83.532 E0.0318
G1 X161.244 Y83.542 E0.0010
G1 X161.239 Y83.567 E0.0023
G1 X161.010 Y84.299 E0.0694
G1 X160.958 Y84.469 E0.0161
G1 X164.807 Y88.798 E0.5237
G1 X165.188 Y88.436 E0.0476
G1 X165.203 Y88.425 E0.0016
G1 X165.320 Y88.339 E0.0131
G1 X165.712 Y88.052 E0.0439
G1 X165.718 Y88.049 E0.0006
G1 X165.725 Y88.043 E0.0008
G1 X166.155 Y87.807 E0.0444
G1 X166.834 Y87.432 E0.0701
G1 X167.439 Y87.192 E0.0588
G1 X167.444 Y87.191 E0.0005
G1 X167.451 Y87.188 E0.0007
G1 X167.927 Y87.068 E0.0443
G1 X168.677 Y86.877 E0.0700
G1 X169.316 Y86.798 E0.0582
G1 X169.324 Y86.798 E0.0007
G1 X170.576 Y86.803 E0.1132
G1 X170.586 Y86.803 E0.0009
G1 X171.222 Y86.886 E0.0580
G1 X171.979 Y87.085 E0.0708
G1 X172.440 Y87.204 E0.0431
G1 X172.450 Y87.208 E0.0010
G1 X172.460 Y87.211 E0.0009
G1 X172.881 Y87.381 E0.0410
G1 X173.042 Y87.446 E0.0157
G1 X173.061 Y87.454 E0.0019
G1 X173.739 Y87.834 E0.0703
G1 X174.161 Y88.070 E0.0437
G1 X174.170 Y88.077 E0.0010
G1 X174.181 Y88.082 E0.0011
G1 X174.516 Y88.332 E0.0378
G1 X174.680 Y88.453 E0.0184
G1 X174.684 Y88.457 E0.0005
G1 X174.699 Y88.468 E0.0017
G1 X175.041 Y88.797 E0.0429
G1 X179.543 Y83.728 E0.6129
G1 X179.542 Y83.722 E0.0006
G1 X179.538 Y83.709 E0.0013
G1 X179.416 Y82.785 E0.0842
G1 X179.313 Y82.010 E0.0707
G1 X179.312 Y81.998 E0.0011
G1 X179.312 Y81.991 E0.0006
G1 X179.311 Y81.660 E0.0299
G1 X179.310 Y81.354 E0.0277
G1 X179.311 Y81.348 E0.0006
G1 X179.311 Y81.335 E0.0011
G1 X179.433 Y80.389 E0.0862
G1 X179.529 Y79.634 E0.0688
G1 X179.532 Y79.622 E0.0011
G1 X179.533 Y79.615 E0.0006
G1 X179.614 Y79.306 E0.0289
G1 X179.694 Y79.001 E0.0285
G1 X179.697 Y78.994 E0.0006
G1 X179.700 Y78.983 E0.0011
G1 X180.071 Y78.073 E0.0888
G1 X180.288 Y77.540 E0.0520
G1 X180.347 Y77.394 E0.0143
G1 X180.350 Y77.386 E0.0008
G1 X180.510 Y77.106 E0.0292
G1 X180.675 Y76.815 E0.0303
G1 X180.679 Y76.808 E0.0007
G1 X180.785 Y76.669 E0.0158
G1 X181.317 Y75.964 E0.0799
G1 X181.559 Y75.643 E0.0364
G1 X181.711 Y75.440 E0.0229
G1 X181.716 Y75.434 E0.0007
G1 X181.947 Y75.199 E0.0298
G1 X182.175 Y74.966 E0.0294
G1 X182.185 Y74.959 E0.0011
G1 X182.188 Y74.955 E0.0005
G1 X182.345 Y74.833 E0.0179
G1 X183.175 Y74.182 E0.0954
G1 X183.371 Y74.010 E0.0236
G1 X183.487 Y73.937 E0.0124
G1 X183.625 Y73.829 E0.0158
G1 X183.855 Y73.705 E0.0237
G1 X184.044 Y73.586 E0.0202
G1 X184.205 Y73.516 E0.0158
G1 X184.393 Y73.416 E0.0193
G1 X184.605 Y73.345 E0.0202
G1 X185.443 Y72.985 E0.0825
G1 X185.686 Y72.879 E0.0239
G1 X185.693 Y72.877 E0.0006
G1 X185.698 Y72.875 E0.0006
G1 X186.008 Y72.788 E0.0291
G1 X186.328 Y72.697 E0.0300
G1 X186.340 Y72.694 E0.0012
G1 X186.564 Y72.662 E0.0204
G1 X187.028 Y72.594 E0.0424
G1 X187.606 Y72.509 E0.0528
G1 X187.606 Y72.310 E0.0180
G1 X188.698 Y72.434 E0.0993
G1 X188.703 Y72.433 E0.0005
G1 X189.433 Y72.517 E0.0664
G1 X190.393 Y72.626 E0.0873
G1 X190.419 Y72.628 E0.0024
G1 X190.449 Y72.636 E0.0028
G1 X190.725 Y72.705 E0.0257
G1 X191.058 Y72.787 E0.0310
G1 X191.065 Y72.789 E0.0006
G1 X191.781 Y73.070 E0.0696
G1 X192.667 Y73.415 E0.0860
G1 X192.676 Y73.420 E0.0009
G1 X192.875 Y73.530 E0.0206
G1 X193.253 Y73.737 E0.0390
G1 X193.882 Y74.199 E0.0705
G1 X194.176 Y74.414 E0.0330
G1 X194.609 Y73.981 E0.0553
G1 X195.343 Y73.417 E0.0837
G1 X195.919 Y73.085 E0.0601
G1 X196.774 Y72.731 E0.0837
G1 X197.416 Y72.559 E0.0601
G1 X198.169 Y72.460 E0.0687
G1 X198.500 Y72.438 E0.0300
G1 X229.432 Y72.438 E2.7966
G1 X229.763 Y72.460 E0.0300
G1 X230.516 Y72.559 E0.0687
G1 X231.158 Y72.731 E0.0601
G1 X232.013 Y73.085 E0.0837
