; G-Code generated by Simplify3D(R) Version 4.1.2
; Nov 24, 2019 at 6:13:30 AM
; Settings Summary
;   processName,Process1
;   applyToModels,Cyclic_Stretch
;   profileName,FF Sidewinder Dev (modified)
;   profileVersion,2019-08-07 04:26:04
;   baseProfile,Creality CR-10(2)
;   printMaterial,PLA
;   printQuality,Regular
;   printExtruders,
;   extruderName,Primary Extruder
;   extruderToolheadNumber,0
;   extruderDiameter,0.6
;   extruderAutoWidth,1
;   extruderWidth,0.72
;   extrusionMultiplier,0.98
;   extruderUseRetract,1
;   extruderRetractionDistance,2.1
;   extruderExtraRestartDistance,0
;   extruderRetractionZLift,0.5
;   extruderRetractionSpeed,3500
;   extruderUseCoasting,1
;   extruderCoastingDistance,0.2
;   extruderUseWipe,1
;   extruderWipeDistance,3
;   primaryExtruder,0
;   layerHeight,0.2
;   topSolidLayers,5
;   bottomSolidLayers,3
;   perimeterOutlines,3
;   printPerimetersInsideOut,1
;   startPointOption,2
;   startPointOriginX,0
;   startPointOriginY,500
;   sequentialIslands,0
;   spiralVaseMode,0
;   firstLayerHeightPercentage,134
;   firstLayerWidthPercentage,115
;   firstLayerUnderspeed,0.4
;   useRaft,0
;   raftExtruder,0
;   raftTopLayers,1
;   raftBaseLayers,1
;   raftOffset,3
;   raftSeparationDistance,0.34
;   raftTopInfill,100
;   aboveRaftSpeedMultiplier,0.3
;   useSkirt,1
;   skirtExtruder,0
;   skirtLayers,2
;   skirtOutlines,3
;   skirtOffset,3
;   usePrimePillar,0
;   primePillarExtruder,999
;   primePillarWidth,12
;   primePillarLocation,7
;   primePillarSpeedMultiplier,1
;   useOozeShield,0
;   oozeShieldExtruder,999
;   oozeShieldOffset,2
;   oozeShieldOutlines,1
;   oozeShieldSidewallShape,1
;   oozeShieldSidewallAngle,30
;   oozeShieldSpeedMultiplier,1
;   infillExtruder,0
;   internalInfillPattern,Rectilinear
;   externalInfillPattern,Rectilinear
;   infillPercentage,100
;   outlineOverlapPercentage,25
;   infillExtrusionWidthPercentage,110
;   minInfillLength,5
;   infillLayerInterval,1
;   internalInfillAngles,45,-45
;   overlapInternalInfillAngles,0
;   externalInfillAngles,45,-45
;   generateSupport,1
;   supportExtruder,0
;   supportInfillPercentage,30
;   supportExtraInflation,0.6
;   supportBaseLayers,3
;   denseSupportExtruder,0
;   denseSupportLayers,3
;   denseSupportInfillPercentage,80
;   supportLayerInterval,1
;   supportHorizontalPartOffset,0.4
;   supportUpperSeparationLayers,1
;   supportLowerSeparationLayers,1
;   supportType,0
;   supportGridSpacing,2
;   maxOverhangAngle,75
;   supportAngles,0
;   temperatureName,Primary Extruder,Heated Bed
;   temperatureNumber,0,0
;   temperatureSetpointCount,2,2
;   temperatureSetpointLayers,1,3,1,3
;   temperatureSetpointTemperatures,215,210,70,70
;   temperatureStabilizeAtStartup,1,1
;   temperatureHeatedBed,0,1
;   fanLayers,1,3,4,5
;   fanSpeeds,0,40,50,60
;   blipFanToFullPower,1
;   adjustSpeedForCooling,1
;   minSpeedLayerTime,15
;   minCoolingSpeedSlowdown,20
;   increaseFanForCooling,0
;   minFanLayerTime,45
;   maxCoolingFanSpeed,100
;   increaseFanForBridging,1
;   bridgingFanSpeed,60
;   use5D,1
;   relativeEdistances,1
;   allowEaxisZeroing,1
;   independentExtruderAxes,0
;   includeM10123,0
;   stickySupport,1
;   applyToolheadOffsets,0
;   gcodeXoffset,0
;   gcodeYoffset,0
;   gcodeZoffset,0
;   overrideMachineDefinition,1
;   machineTypeOverride,0
;   strokeXoverride,300
;   strokeYoverride,300
;   strokeZoverride,400
;   originOffsetXoverride,0
;   originOffsetYoverride,0
;   originOffsetZoverride,0
;   homeXdirOverride,-1
;   homeYdirOverride,-1
;   homeZdirOverride,-1
;   flipXoverride,1
;   flipYoverride,-1
;   flipZoverride,1
;   toolheadOffsets,0,0|0,0|0,0|0,0|0,0|0,0
;   overrideFirmwareConfiguration,1
;   firmwareTypeOverride,RepRap (Marlin/Repetier/Sprinter)
;   GPXconfigOverride,r2
;   baudRateOverride,115200
;   overridePrinterModels,1
;   printerModelsOverride
;   startingGcode,G28 ; home all axes,M117 Purge extruder,G92 E0 ; reset extruder,G1 Z1.0 F3000 ; move z up little to prevent scratching of surface,G1 X2 Y20 Z0.3 F5000.0 ; move to start-line position,G1 X2 Y200.0 Z0.3 F1500.0 E15 ; draw 1st line,G1 X2 Y200.0 Z0.4 F5000.0 ; move to side a little,G1 X2 Y20 Z0.4 F1500.0 E30 ; draw 2nd line,; G1 E27 F3000 ; retract filament 3mm,G92 E0 ; reset extruder,; done purging extruder,G1 Z1.0 F3000 ; move z up little to prevent scratching of surface,
;   layerChangeGcode,
;   retractionGcode,
;   toolChangeGcode,
;   endingGcode,M104 S0; turn off extruder,M140 S0 ; turn off bed,G1 X0 Y300 F1000 ; prepare for part removal,M84 ; disable motors,M106 S0 ; turn off fan,
;   exportFileFormat,gcode
;   celebration,0
;   celebrationSong,Star Wars
;   postProcessing,
;   defaultSpeed,3000
;   outlineUnderspeed,0.5
;   solidInfillUnderspeed,0.7
;   supportUnderspeed,0.8
;   rapidXYspeed,5000
;   rapidZspeed,1000
;   minBridgingArea,50
;   bridgingExtraInflation,0
;   bridgingExtrusionMultiplier,1
;   bridgingSpeedMultiplier,1
;   useFixedBridgingAngle,0
;   fixedBridgingAngle,0
;   applyBridgingToPerimeters,1
;   filamentDiameters,1.75|1.75|1.75|1.75|1.75|1.75
;   filamentPricesPerKg,17.99|46|46|46|46|46
;   filamentDensities,1.25|1.25|1.25|1.25|1.25|1.25
;   useMinPrintHeight,0
;   minPrintHeight,100.8
;   useMaxPrintHeight,0
;   maxPrintHeight,14
;   useDiaphragm,0
;   diaphragmLayerInterval,20
;   robustSlicing,1
;   mergeAllIntoSolid,0
;   onlyRetractWhenCrossingOutline,0
;   retractBetweenLayers,1
;   useRetractionMinTravel,1
;   retractionMinTravel,3
;   retractWhileWiping,1
;   onlyWipeOutlines,1
;   avoidCrossingOutline,1
;   maxMovementDetourFactor,3
;   toolChangeRetractionDistance,0
;   toolChangeExtraRestartDistance,0
;   toolChangeRetractionSpeed,600
;   externalThinWallType,0
;   internalThinWallType,1
;   thinWallAllowedOverlapPercentage,20
;   singleExtrusionMinLength,1
;   singleExtrusionMinPrintingWidthPercentage,50
;   singleExtrusionMaxPrintingWidthPercentage,200
;   singleExtrusionEndpointExtension,0.2
;   horizontalSizeCompensation,0
G90
M83
M106 S0
M140 S70
M190 S70
M104 S215 T0
M109 S215 T0
G28 ; home all axes
M117 Purge extruder
G92 E0 ; reset extruder
G1 Z1.0 F3000 ; move z up little to prevent scratching of surface
G1 X2 Y20 Z0.3 F5000.0 ; move to start-line position
G1 X2 Y200.0 Z0.3 F1500.0 E15 ; draw 1st line
G1 X2 Y200.0 Z0.4 F5000.0 ; move to side a little
G1 X2 Y20 Z0.4 F1500.0 E30 ; draw 2nd line
; G1 E27 F3000 ; retract filament 3mm
G92 E0 ; reset extruder
; done purging extruder
G1 Z1.0 F3000 ; move z up little to prevent scratching of surface
; process Process1
; layer 1, Z = 0.268
T0
G1 E-2.1000 F3500
; feature skirt
; tool H0.268 W0.828
G1 Z0.500 F1000
G1 X112.867 Y121.795 F5000
G1 Z0.268 F1000
G1 E2.1000 F3500
G1 X112.931 Y121.735 E0.0079 F1200
G1 X113.018 Y121.663 E0.0102
G1 X113.048 Y121.637 E0.0035
G1 X113.095 Y121.600 E0.0055
G1 X113.186 Y121.525 E0.0106
G1 X113.224 Y121.499 E0.0042
G1 X113.234 Y121.490 E0.0012
G1 X113.934 Y120.989 E0.0778
G1 X113.946 Y120.982 E0.0012
G1 X113.982 Y120.956 E0.0040
G1 X114.081 Y120.894 E0.0106
G1 X114.133 Y120.860 E0.0056
G1 X114.166 Y120.841 E0.0034
G1 X114.259 Y120.783 E0.0099
G1 X114.339 Y120.740 E0.0082
G1 X114.634 Y120.568 E0.0309
G1 X114.863 Y120.450 E0.0233
G1 X114.972 Y120.400 E0.0108
G1 X115.097 Y120.333 E0.0129
G1 X115.324 Y120.225 E0.0227
G1 X115.714 Y120.063 E0.0382
G1 X115.771 Y120.038 E0.0056
G1 X115.830 Y120.015 E0.0057
G1 X115.876 Y119.996 E0.0045
G1 X115.967 Y119.964 E0.0087
G1 X116.082 Y119.920 E0.0112
G1 X117.000 Y119.641 E0.0867
G1 X117.011 Y119.638 E0.0011
G1 X117.333 Y119.562 E0.0298
G1 X118.152 Y119.425 E0.0752
G1 X118.301 Y119.400 E0.0136
G1 X118.309 Y119.399 E0.0007
G1 X118.318 Y119.397 E0.0008
G1 X118.337 Y119.395 E0.0018
G1 X118.337 Y119.243 E0.0138
G1 X119.845 Y119.335 E0.1365
G1 X120.071 Y119.349 E0.0205
G1 X120.413 Y119.370 E0.0310
G1 X120.491 Y119.378 E0.0071
G1 X120.659 Y119.397 E0.0153
G1 X120.678 Y119.400 E0.0018
G1 X120.715 Y119.406 E0.0033
G1 X121.264 Y119.494 E0.0503
G1 X121.556 Y119.541 E0.0268
G1 X121.569 Y119.543 E0.0012
G1 X121.675 Y119.566 E0.0098
G1 X121.796 Y119.591 E0.0112
G1 X121.803 Y119.593 E0.0006
G1 X121.808 Y119.594 E0.0005
G1 X122.342 Y119.735 E0.0499
G1 X122.352 Y119.737 E0.0009
G1 X122.441 Y119.765 E0.0085
G1 X122.530 Y119.792 E0.0083
G1 X122.536 Y119.794 E0.0007
G1 X123.593 Y120.161 E0.1011
G1 X124.294 Y120.376 E0.0663
G1 X124.845 Y120.544 E0.0521
G1 X126.068 Y120.843 E0.1138
G1 X126.682 Y120.967 E0.0567
G1 X149.132 Y124.715 E2.0578
G1 X149.361 Y124.748 E0.0209
G1 X149.884 Y124.785 E0.0474
G1 X150.348 Y124.774 E0.0420
G1 X150.928 Y124.705 E0.0528
G1 X173.062 Y121.013 E2.0288
G1 X173.224 Y120.982 E0.0149
G1 X173.923 Y120.845 E0.0644
G1 X175.155 Y120.544 E0.1146
G1 X175.718 Y120.372 E0.0532
G1 X176.407 Y120.161 E0.0652
G1 X177.500 Y119.781 E0.1046
G1 X177.508 Y119.779 E0.0007
G1 X177.515 Y119.776 E0.0007
G1 X177.656 Y119.736 E0.0132
G1 X177.759 Y119.706 E0.0097
G1 X177.766 Y119.705 E0.0006
G1 X177.779 Y119.701 E0.0013
G1 X178.726 Y119.485 E0.0878
G1 X179.022 Y119.437 E0.0271
G1 X179.055 Y119.432 E0.0030
G1 X179.975 Y119.344 E0.0836
G1 X179.988 Y119.344 E0.0011
G1 X180.158 Y119.336 E0.0154
G1 X180.216 Y119.333 E0.0053
G1 X180.233 Y119.332 E0.0015
G1 X180.663 Y119.333 E0.0389
G1 X180.760 Y119.333 E0.0088
G1 X180.811 Y119.333 E0.0046
G1 X180.907 Y119.338 E0.0087
G1 X180.961 Y119.340 E0.0050
G1 X180.995 Y119.343 E0.0030
G1 X181.070 Y119.346 E0.0068
G1 X181.120 Y119.352 E0.0046
G1 X181.505 Y119.379 E0.0349
G1 X181.749 Y119.408 E0.0222
G1 X181.858 Y119.426 E0.0100
G1 X181.969 Y119.437 E0.0101
G1 X182.213 Y119.474 E0.0223
G1 X182.593 Y119.550 E0.0350
G1 X182.676 Y119.564 E0.0076
G1 X182.748 Y119.581 E0.0068
G1 X182.786 Y119.589 E0.0035
G1 X182.868 Y119.609 E0.0077
G1 X182.988 Y119.638 E0.0111
G1 X183.015 Y119.646 E0.0026
G1 X183.071 Y119.663 E0.0053
G1 X183.873 Y119.906 E0.0758
G1 X183.891 Y119.913 E0.0017
G1 X184.007 Y119.954 E0.0111
G1 X184.111 Y119.992 E0.0100
G1 X184.124 Y119.996 E0.0013
G1 X184.674 Y120.224 E0.0538
G1 X184.689 Y120.232 E0.0016
G1 X184.832 Y120.299 E0.0143
G1 X184.877 Y120.321 E0.0045
G1 X184.909 Y120.336 E0.0032
G1 X185.677 Y120.747 E0.0787
G1 X185.686 Y120.752 E0.0010
G1 X185.800 Y120.821 E0.0120
G1 X185.894 Y120.877 E0.0099
G1 X185.901 Y120.881 E0.0008
G1 X186.395 Y121.211 E0.0537
G1 X186.561 Y121.335 E0.0187
G1 X186.604 Y121.366 E0.0048
G1 X187.273 Y121.915 E0.0782
G1 X187.287 Y121.927 E0.0016
G1 X187.363 Y121.995 E0.0093
G1 X187.453 Y122.077 E0.0109
G1 X187.467 Y122.089 E0.0017
G1 X187.708 Y122.330 E0.0308
G1 X187.832 Y122.452 E0.0158
G1 X187.842 Y122.463 E0.0013
G1 X187.849 Y122.469 E0.0008
G1 X187.964 Y122.592 E0.0152
G1 X188.330 Y123.008 E0.0501
G1 X188.354 Y123.038 E0.0035
G1 X188.414 Y123.114 E0.0087
G1 X188.503 Y123.225 E0.0129
G1 X188.515 Y123.243 E0.0020
G1 X189.026 Y123.954 E0.0791
G1 X189.031 Y123.962 E0.0009
G1 X189.207 Y124.242 E0.0299
G1 X189.685 Y125.132 E0.0913
G1 X189.824 Y125.435 E0.0302
G1 X189.828 Y125.444 E0.0009
G1 X190.150 Y126.293 E0.0821
G1 X190.155 Y126.305 E0.0012
G1 X190.181 Y126.386 E0.0076
G1 X190.225 Y126.520 E0.0128
G1 X190.231 Y126.538 E0.0017
G1 X190.320 Y126.865 E0.0306
G1 X190.368 Y127.039 E0.0163
G1 X190.371 Y127.051 E0.0011
G1 X190.372 Y127.057 E0.0005
G1 X190.412 Y127.222 E0.0153
G1 X190.522 Y127.766 E0.0502
G1 X190.560 Y128.011 E0.0224
G1 X190.562 Y128.025 E0.0012
G1 X190.656 Y128.933 E0.0825
G1 X190.656 Y128.945 E0.0011
G1 X190.669 Y129.273 E0.0297
G1 X190.641 Y130.281 E0.0912
G1 X190.610 Y130.615 E0.0303
G1 X190.609 Y130.626 E0.0009
G1 X190.466 Y131.523 E0.0821
G1 X190.417 Y131.761 E0.0220
G1 X190.414 Y131.774 E0.0012
G1 X190.312 Y132.165 E0.0365
G1 X190.300 Y132.219 E0.0051
G1 X190.284 Y132.274 E0.0052
G1 X190.274 Y132.312 E0.0035
G1 X190.258 Y132.367 E0.0052
G1 X190.236 Y132.442 E0.0070
G1 X190.224 Y132.478 E0.0034
G1 X190.220 Y132.493 E0.0015
G1 X190.196 Y132.563 E0.0067
G1 X190.058 Y132.980 E0.0397
G1 X190.053 Y132.993 E0.0013
G1 X190.005 Y133.115 E0.0118
G1 X189.967 Y133.213 E0.0095
G1 X189.965 Y133.219 E0.0006
G1 X189.619 Y133.998 E0.0771
G1 X189.590 Y134.063 E0.0065
G1 X189.585 Y134.075 E0.0011
G1 X189.516 Y134.205 E0.0134
G1 X189.437 Y134.356 E0.0153
G1 X189.433 Y134.365 E0.0010
G1 X189.396 Y134.425 E0.0064
G1 X188.915 Y135.213 E0.0835
G1 X188.909 Y135.221 E0.0009
G1 X188.906 Y135.226 E0.0005
G1 X188.821 Y135.347 E0.0133
G1 X188.729 Y135.478 E0.0145
G1 X188.724 Y135.484 E0.0007
G1 X188.719 Y135.491 E0.0008
G1 X188.210 Y136.123 E0.0734
G1 X188.096 Y136.267 E0.0167
G1 X188.086 Y136.277 E0.0013
G1 X188.070 Y136.297 E0.0023
G1 X187.941 Y136.432 E0.0169
G1 X187.816 Y136.565 E0.0165
G1 X187.797 Y136.583 E0.0024
G1 X187.773 Y136.608 E0.0032
G1 X187.644 Y136.722 E0.0155
G1 X186.613 Y137.658 E0.1260
G1 X186.108 Y138.117 E0.0616
G1 X185.198 Y139.024 E0.1162
G1 X184.336 Y139.990 E0.1171
G1 X183.345 Y141.208 E0.1420
G1 X176.442 Y150.004 E1.0109
G1 X183.596 Y159.139 E1.0491
G1 X183.809 Y159.396 E0.0301
G1 X184.315 Y160.008 E0.0718
G1 X185.158 Y160.947 E0.1141
G1 X186.015 Y161.798 E0.1092
G1 X186.067 Y161.851 E0.0067
G1 X186.190 Y161.959 E0.0148
G1 X187.475 Y163.097 E0.1552
G1 X187.628 Y163.247 E0.0194
G1 X187.663 Y163.281 E0.0044
G1 X188.176 Y163.838 E0.0684
G1 X188.303 Y163.975 E0.0169
G1 X188.510 Y164.232 E0.0298
G1 X189.082 Y165.041 E0.0895
G1 X189.088 Y165.051 E0.0012
G1 X189.095 Y165.061 E0.0010
G1 X189.171 Y165.185 E0.0132
G1 X189.251 Y165.316 E0.0139
G1 X189.257 Y165.326 E0.0010
G1 X189.263 Y165.336 E0.0011
G1 X189.358 Y165.518 E0.0186
G1 X189.704 Y166.175 E0.0670
G1 X189.715 Y166.198 E0.0023
G1 X189.731 Y166.235 E0.0036
G1 X189.807 Y166.398 E0.0163
G1 X189.813 Y166.412 E0.0013
G1 X189.817 Y166.420 E0.0008
G1 X189.891 Y166.604 E0.0179
G1 X190.027 Y166.936 E0.0325
G1 X190.032 Y166.953 E0.0016
G1 X190.075 Y167.074 E0.0116
G1 X190.107 Y167.166 E0.0089
G1 X190.111 Y167.177 E0.0010
G1 X190.372 Y168.050 E0.0823
G1 X190.375 Y168.062 E0.0012
G1 X190.376 Y168.069 E0.0006
G1 X190.450 Y168.390 E0.0298
G1 X190.606 Y169.361 E0.0889
G1 X190.632 Y169.361 E0.0023
G1 X190.642 Y169.725 E0.0330
G1 X190.643 Y169.740 E0.0013
G1 X190.654 Y170.163 E0.0382
G1 X190.669 Y170.717 E0.0501
G1 X190.668 Y170.742 E0.0023
G1 X190.665 Y170.831 E0.0081
G1 X190.657 Y171.048 E0.0196
G1 X190.656 Y171.055 E0.0007
G1 X190.633 Y171.625 E0.0516
G1 X190.597 Y171.625 E0.0033
G1 X190.559 Y171.996 E0.0337
G1 X190.521 Y172.242 E0.0225
G1 X190.519 Y172.253 E0.0010
G1 X190.517 Y172.262 E0.0009
G1 X190.473 Y172.479 E0.0200
G1 X190.406 Y172.807 E0.0303
G1 X190.401 Y172.829 E0.0020
G1 X190.366 Y172.967 E0.0129
G1 X190.346 Y173.042 E0.0070
G1 X190.342 Y173.059 E0.0016
G1 X190.077 Y173.926 E0.0820
G1 X190.072 Y173.940 E0.0013
G1 X189.955 Y174.249 E0.0299
G1 X189.536 Y175.170 E0.0915
G1 X189.375 Y175.468 E0.0306
G1 X189.368 Y175.482 E0.0014
G1 X189.142 Y175.841 E0.0384
G1 X188.849 Y176.309 E0.0499
G1 X188.833 Y176.332 E0.0026
G1 X188.793 Y176.387 E0.0061
G1 X188.656 Y176.577 E0.0212
G1 X188.651 Y176.583 E0.0007
G1 X188.641 Y176.597 E0.0015
G1 X188.379 Y176.913 E0.0372
G1 X188.025 Y177.343 E0.0503
G1 X188.007 Y177.363 E0.0024
G1 X187.945 Y177.429 E0.0082
G1 X187.801 Y177.582 E0.0190
G1 X187.794 Y177.589 E0.0009
G1 X187.780 Y177.603 E0.0018
G1 X187.552 Y177.815 E0.0281
G1 X187.089 Y178.248 E0.0574
G1 X187.056 Y178.275 E0.0038
G1 X187.051 Y178.281 E0.0007
G1 X186.973 Y178.344 E0.0091
G1 X186.837 Y178.456 E0.0159
G1 X186.825 Y178.464 E0.0013
G1 X186.794 Y178.490 E0.0037
G1 X186.442 Y178.740 E0.0390
G1 X186.031 Y179.036 E0.0458
G1 X185.991 Y179.061 E0.0042
G1 X185.984 Y179.066 E0.0008
G1 X185.898 Y179.119 E0.0091
G1 X185.750 Y179.212 E0.0158
G1 X185.736 Y179.219 E0.0014
G1 X185.702 Y179.240 E0.0036
G1 X185.323 Y179.441 E0.0389
G1 X184.875 Y179.682 E0.0460
G1 X184.830 Y179.703 E0.0045
G1 X184.763 Y179.733 E0.0066
G1 X184.574 Y179.820 E0.0188
G1 X184.563 Y179.824 E0.0011
G1 X184.536 Y179.836 E0.0027
G1 X183.651 Y180.171 E0.0855
G1 X183.644 Y180.173 E0.0007
G1 X183.326 Y180.271 E0.0300
G1 X182.558 Y180.452 E0.0713
G1 X182.504 Y180.465 E0.0051
G1 X182.367 Y180.498 E0.0127
G1 X182.361 Y180.499 E0.0006
G1 X182.352 Y180.502 E0.0009
G1 X182.190 Y180.529 E0.0148
