; G-Code generated by Simplify3D(R) Version 4.1.2
; Nov 24, 2019 at 1:17:25 AM
; Settings Summary
;   processName,Process1
;   applyToModels,KeithTFrameSupportV04_65,KeithTFrameSupportV03_64(2),KeithTFrameSupportV03_64(3),KeithTFrameSupportV03_64(4)
;   profileName,FF Sidewinder Dev (modified)
;   profileVersion,2019-08-07 04:26:04
;   baseProfile,Creality CR-10(2)
;   printMaterial,PLA
;   printQuality,Detail
;   printExtruders,
;   extruderName,Primary Extruder
;   extruderToolheadNumber,0
;   extruderDiameter,0.6
;   extruderAutoWidth,1
;   extruderWidth,0.72
;   extrusionMultiplier,0.98
;   extruderUseRetract,1
;   extruderRetractionDistance,2.1
;   extruderExtraRestartDistance,0
;   extruderRetractionZLift,0.5
;   extruderRetractionSpeed,3500
;   extruderUseCoasting,1
;   extruderCoastingDistance,0.2
;   extruderUseWipe,1
;   extruderWipeDistance,3
;   primaryExtruder,0
;   layerHeight,0.18
;   topSolidLayers,6
;   bottomSolidLayers,5
;   perimeterOutlines,3
;   printPerimetersInsideOut,1
;   startPointOption,2
;   startPointOriginX,0
;   startPointOriginY,500
;   sequentialIslands,0
;   spiralVaseMode,0
;   firstLayerHeightPercentage,134
;   firstLayerWidthPercentage,115
;   firstLayerUnderspeed,0.4
;   useRaft,1
;   raftExtruder,0
;   raftTopLayers,1
;   raftBaseLayers,1
;   raftOffset,3
;   raftSeparationDistance,0.34
;   raftTopInfill,100
;   aboveRaftSpeedMultiplier,0.3
;   useSkirt,1
;   skirtExtruder,0
;   skirtLayers,1
;   skirtOutlines,3
;   skirtOffset,3
;   usePrimePillar,0
;   primePillarExtruder,999
;   primePillarWidth,12
;   primePillarLocation,7
;   primePillarSpeedMultiplier,1
;   useOozeShield,0
;   oozeShieldExtruder,999
;   oozeShieldOffset,2
;   oozeShieldOutlines,1
;   oozeShieldSidewallShape,1
;   oozeShieldSidewallAngle,30
;   oozeShieldSpeedMultiplier,1
;   infillExtruder,0
;   internalInfillPattern,Rectilinear
;   externalInfillPattern,Rectilinear
;   infillPercentage,15
;   outlineOverlapPercentage,25
;   infillExtrusionWidthPercentage,110
;   minInfillLength,5
;   infillLayerInterval,1
;   internalInfillAngles,45,-45
;   overlapInternalInfillAngles,0
;   externalInfillAngles,45,-45
;   generateSupport,1
;   supportExtruder,0
;   supportInfillPercentage,30
;   supportExtraInflation,0.6
;   supportBaseLayers,3
;   denseSupportExtruder,0
;   denseSupportLayers,3
;   denseSupportInfillPercentage,80
;   supportLayerInterval,1
;   supportHorizontalPartOffset,0.4
;   supportUpperSeparationLayers,1
;   supportLowerSeparationLayers,1
;   supportType,0
;   supportGridSpacing,2
;   maxOverhangAngle,75
;   supportAngles,0
;   temperatureName,Primary Extruder,Heated Bed
;   temperatureNumber,0,0
;   temperatureSetpointCount,2,2
;   temperatureSetpointLayers,1,3,1,3
;   temperatureSetpointTemperatures,215,210,70,70
;   temperatureStabilizeAtStartup,1,1
;   temperatureHeatedBed,0,1
;   fanLayers,1,3,4,5
;   fanSpeeds,0,40,50,60
;   blipFanToFullPower,1
;   adjustSpeedForCooling,1
;   minSpeedLayerTime,15
;   minCoolingSpeedSlowdown,20
;   increaseFanForCooling,0
;   minFanLayerTime,45
;   maxCoolingFanSpeed,100
;   increaseFanForBridging,1
;   bridgingFanSpeed,60
;   use5D,1
;   relativeEdistances,1
;   allowEaxisZeroing,1
;   independentExtruderAxes,0
;   includeM10123,0
;   stickySupport,1
;   applyToolheadOffsets,0
;   gcodeXoffset,0
;   gcodeYoffset,0
;   gcodeZoffset,0
;   overrideMachineDefinition,1
;   machineTypeOverride,0
;   strokeXoverride,300
;   strokeYoverride,300
;   strokeZoverride,400
;   originOffsetXoverride,0
;   originOffsetYoverride,0
;   originOffsetZoverride,0
;   homeXdirOverride,-1
;   homeYdirOverride,-1
;   homeZdirOverride,-1
;   flipXoverride,1
;   flipYoverride,-1
;   flipZoverride,1
;   toolheadOffsets,0,0|0,0|0,0|0,0|0,0|0,0
;   overrideFirmwareConfiguration,1
;   firmwareTypeOverride,RepRap (Marlin/Repetier/Sprinter)
;   GPXconfigOverride,r2
;   baudRateOverride,115200
;   overridePrinterModels,1
;   printerModelsOverride
;   startingGcode,G28 ; home all axes,M117 Purge extruder,G92 E0 ; reset extruder,G1 Z1.0 F3000 ; move z up little to prevent scratching of surface,G1 X2 Y20 Z0.3 F5000.0 ; move to start-line position,G1 X2 Y200.0 Z0.3 F1500.0 E15 ; draw 1st line,G1 X2 Y200.0 Z0.4 F5000.0 ; move to side a little,G1 X2 Y20 Z0.4 F1500.0 E30 ; draw 2nd line,; G1 E27 F3000 ; retract filament 3mm,G92 E0 ; reset extruder,; done purging extruder,G1 Z1.0 F3000 ; move z up little to prevent scratching of surface,
;   layerChangeGcode,
;   retractionGcode,
;   toolChangeGcode,
;   endingGcode,M104 S0; turn off extruder,M140 S0 ; turn off bed,G1 X0 Y300 F1000 ; prepare for part removal,M84 ; disable motors,M106 S0 ; turn off fan,
;   exportFileFormat,gcode
;   celebration,0
;   celebrationSong,Star Wars
;   postProcessing,
;   defaultSpeed,3000
;   outlineUnderspeed,0.5
;   solidInfillUnderspeed,0.7
;   supportUnderspeed,0.8
;   rapidXYspeed,5000
;   rapidZspeed,1000
;   minBridgingArea,50
;   bridgingExtraInflation,0
;   bridgingExtrusionMultiplier,1
;   bridgingSpeedMultiplier,1
;   useFixedBridgingAngle,0
;   fixedBridgingAngle,0
;   applyBridgingToPerimeters,1
;   filamentDiameters,1.75|1.75|1.75|1.75|1.75|1.75
;   filamentPricesPerKg,17.99|46|46|46|46|46
;   filamentDensities,1.25|1.25|1.25|1.25|1.25|1.25
;   useMinPrintHeight,0
;   minPrintHeight,100.8
;   useMaxPrintHeight,0
;   maxPrintHeight,14
;   useDiaphragm,0
;   diaphragmLayerInterval,20
;   robustSlicing,1
;   mergeAllIntoSolid,0
;   onlyRetractWhenCrossingOutline,0
;   retractBetweenLayers,1
;   useRetractionMinTravel,1
;   retractionMinTravel,3
;   retractWhileWiping,1
;   onlyWipeOutlines,1
;   avoidCrossingOutline,1
;   maxMovementDetourFactor,3
;   toolChangeRetractionDistance,0
;   toolChangeExtraRestartDistance,0
;   toolChangeRetractionSpeed,600
;   externalThinWallType,0
;   internalThinWallType,1
;   thinWallAllowedOverlapPercentage,20
;   singleExtrusionMinLength,1
;   singleExtrusionMinPrintingWidthPercentage,50
;   singleExtrusionMaxPrintingWidthPercentage,200
;   singleExtrusionEndpointExtension,0.2
;   horizontalSizeCompensation,0
G90
M83
M106 S0
M140 S70
M190 S70
M104 S215 T0
M109 S215 T0
G28 ; home all axes
M117 Purge extruder
G92 E0 ; reset extruder
G1 Z1.0 F3000 ; move z up little to prevent scratching of surface
G1 X2 Y20 Z0.3 F5000.0 ; move to start-line position
G1 X2 Y200.0 Z0.3 F1500.0 E15 ; draw 1st line
G1 X2 Y200.0 Z0.4 F5000.0 ; move to side a little
G1 X2 Y20 Z0.4 F1500.0 E30 ; draw 2nd line
; G1 E27 F3000 ; retract filament 3mm
G92 E0 ; reset extruder
; done purging extruder
G1 Z1.0 F3000 ; move z up little to prevent scratching of surface
; process Process1
; layer 1, Z = 1.005
T0
G1 E-2.1000 F3500
; feature skirt
; tool H1.005 W0.828
G1 Z1.005 F1000
G1 X86.769 Y90.038 F5000
G1 E2.1000 F3500
G1 X87.500 Y89.478 E0.3122 F1200
G1 X87.776 Y89.293 E0.1126
G1 X88.404 Y88.930 E0.2459
G1 X88.702 Y88.784 E0.1126
G1 X88.760 Y88.760 E0.0212
G1 X88.784 Y88.702 E0.0212
G1 X88.930 Y88.404 E0.1126
G1 X89.293 Y87.776 E0.2459
G1 X89.478 Y87.500 E0.1126
G1 X90.038 Y86.769 E0.3122
G1 X90.257 Y86.520 E0.1125
G1 X90.770 Y86.007 E0.2458
G1 X91.019 Y85.788 E0.1125
G1 X91.750 Y85.228 E0.3122
G1 X92.026 Y85.043 E0.1126
G1 X92.654 Y84.680 E0.2459
G1 X92.952 Y84.534 E0.1126
G1 X93.803 Y84.181 E0.3123
G1 X94.117 Y84.074 E0.1125
G1 X94.818 Y83.887 E0.2459
G1 X95.143 Y83.822 E0.1126
G1 X95.966 Y83.714 E0.2815
G1 X96.215 Y83.693 E0.0844
G1 X96.758 Y83.675 E0.1843
G1 X97.007 Y83.680 E0.0843
G1 X98.111 Y83.752 E0.3754
G1 X98.277 Y83.768 E0.0563
G1 X98.636 Y83.815 E0.1229
G1 X98.799 Y83.843 E0.0562
G1 X99.752 Y84.032 E0.3292
G1 X99.873 Y84.059 E0.0422
G1 X100.137 Y84.125 E0.0921
G1 X100.257 Y84.158 E0.0422
G1 X100.830 Y84.332 E0.2031
G1 X100.948 Y84.371 E0.0422
G1 X101.204 Y84.463 E0.0921
G1 X101.320 Y84.508 E0.0422
G1 X102.217 Y84.879 E0.3293
G1 X102.368 Y84.948 E0.0563
G1 X102.693 Y85.108 E0.1228
G1 X102.840 Y85.186 E0.0563
G1 X103.720 Y85.694 E0.3446
G1 X103.861 Y85.782 E0.0563
G1 X104.162 Y85.983 E0.1228
G1 X104.297 Y86.080 E0.0562
G1 X105.103 Y86.699 E0.3446
G1 X105.231 Y86.804 E0.0563
G1 X105.504 Y87.043 E0.1229
G1 X105.625 Y87.156 E0.0563
G1 X106.344 Y87.875 E0.3446
G1 X106.457 Y87.996 E0.0563
G1 X106.696 Y88.269 E0.1228
G1 X106.801 Y88.397 E0.0563
G1 X107.420 Y89.203 E0.3446
G1 X107.517 Y89.338 E0.0563
G1 X107.718 Y89.639 E0.1228
G1 X107.806 Y89.780 E0.0563
G1 X108.314 Y90.661 E0.3446
G1 X108.392 Y90.807 E0.0562
G1 X108.552 Y91.132 E0.1228
G1 X108.621 Y91.283 E0.0563
G1 X109.010 Y92.222 E0.3446
G1 X109.068 Y92.377 E0.0562
G1 X109.185 Y92.720 E0.1228
G1 X109.233 Y92.879 E0.0563
G1 X109.496 Y93.861 E0.3446
G1 X109.534 Y94.022 E0.0563
G1 X109.604 Y94.378 E0.1229
G1 X109.631 Y94.542 E0.0563
G1 X109.641 Y94.613 E0.0243
G1 X109.878 Y95.138 E0.1954
G1 X110.640 Y96.564 E0.5482
G1 X111.494 Y97.938 E0.5485
G1 X112.435 Y99.252 E0.5482
G1 X113.449 Y100.488 E0.5420
G1 X114.803 Y101.921 E0.6682
G1 X115.997 Y103.039 E0.5546
G1 X117.248 Y104.065 E0.5485
G1 X118.562 Y105.006 E0.5483
G1 X119.750 Y105.745 E0.4741
G1 X120.938 Y105.006 E0.4741
G1 X122.252 Y104.065 E0.5483
G1 X123.503 Y103.039 E0.5485
G1 X124.697 Y101.920 E0.5546
G1 X126.051 Y100.489 E0.6680
G1 X127.065 Y99.252 E0.5422
G1 X128.006 Y97.938 E0.5481
G1 X128.860 Y96.564 E0.5485
G1 X129.622 Y95.138 E0.5482
G1 X129.858 Y94.615 E0.1944
G1 X129.906 Y94.326 E0.0995
G1 X129.929 Y94.203 E0.0422
G1 X129.987 Y93.938 E0.0921
G1 X130.016 Y93.817 E0.0422
G1 X130.267 Y92.879 E0.3292
G1 X130.315 Y92.720 E0.0563
G1 X130.432 Y92.377 E0.1228
G1 X130.490 Y92.222 E0.0562
G1 X130.879 Y91.283 E0.3446
G1 X130.948 Y91.132 E0.0563
G1 X131.108 Y90.807 E0.1229
G1 X131.186 Y90.660 E0.0563
G1 X131.672 Y89.819 E0.3293
G1 X131.737 Y89.713 E0.0422
G1 X131.884 Y89.485 E0.0921
G1 X131.954 Y89.382 E0.0422
G1 X132.276 Y88.932 E0.1876
G1 X132.326 Y88.866 E0.0281
G1 X132.436 Y88.722 E0.0614
G1 X132.487 Y88.657 E0.0281
G1 X132.839 Y88.229 E0.1878
G1 X132.920 Y88.134 E0.0422
G1 X133.103 Y87.933 E0.0922
G1 X133.188 Y87.843 E0.0422
G1 X133.875 Y87.156 E0.3293
G1 X133.996 Y87.043 E0.0563
G1 X134.269 Y86.804 E0.1228
G1 X134.397 Y86.699 E0.0563
G1 X135.203 Y86.080 E0.3446
G1 X135.338 Y85.983 E0.0562
G1 X135.639 Y85.782 E0.1228
G1 X135.780 Y85.694 E0.0562
G1 X136.660 Y85.186 E0.3446
G1 X136.807 Y85.108 E0.0563
G1 X137.132 Y84.948 E0.1229
G1 X137.283 Y84.879 E0.0563
G1 X138.222 Y84.490 E0.3446
G1 X138.377 Y84.432 E0.0562
G1 X138.720 Y84.315 E0.1228
G1 X138.879 Y84.267 E0.0563
G1 X139.861 Y84.004 E0.3446
G1 X140.022 Y83.966 E0.0563
G1 X140.378 Y83.896 E0.1228
G1 X140.542 Y83.869 E0.0563
G1 X141.504 Y83.742 E0.3292
G1 X141.628 Y83.729 E0.0422
G1 X141.899 Y83.707 E0.0922
G1 X142.023 Y83.699 E0.0422
G1 X142.712 Y83.677 E0.2338
G1 X142.920 Y83.679 E0.0703
G1 X143.372 Y83.701 E0.1535
G1 X143.579 Y83.719 E0.0703
G1 X144.357 Y83.822 E0.2661
G1 X144.682 Y83.887 E0.1126
G1 X145.383 Y84.074 E0.2459
G1 X145.697 Y84.181 E0.1125
G1 X146.548 Y84.534 E0.3123
G1 X146.846 Y84.680 E0.1126
G1 X147.474 Y85.043 E0.2459
G1 X147.750 Y85.228 E0.1126
G1 X148.481 Y85.788 E0.3123
G1 X148.730 Y86.007 E0.1125
G1 X149.243 Y86.520 E0.2458
G1 X149.374 Y86.669 E0.0671
G1 X149.636 Y86.408 E0.1253
G1 X151.104 Y85.495 E0.5862
G1 X151.211 Y85.432 E0.0422
G1 X151.449 Y85.300 E0.0921
G1 X151.559 Y85.242 E0.0422
G1 X152.389 Y84.833 E0.3139
G1 X152.502 Y84.780 E0.0422
G1 X152.752 Y84.672 E0.0922
G1 X152.867 Y84.626 E0.0422
G1 X153.427 Y84.415 E0.2030
G1 X153.545 Y84.374 E0.0422
G1 X153.803 Y84.291 E0.0921
G1 X153.923 Y84.256 E0.0422
G1 X154.817 Y84.016 E0.3139
G1 X154.938 Y83.987 E0.0422
G1 X155.204 Y83.929 E0.0922
G1 X155.326 Y83.906 E0.0422
G1 X155.917 Y83.808 E0.2031
G1 X156.040 Y83.791 E0.0422
G1 X156.310 Y83.760 E0.0921
G1 X156.434 Y83.749 E0.0422
G1 X157.403 Y83.685 E0.3292
G1 X157.569 Y83.680 E0.0563
G1 X157.931 Y83.680 E0.1229
G1 X158.097 Y83.685 E0.0563
G1 X159.066 Y83.749 E0.3292
G1 X159.190 Y83.760 E0.0422
G1 X159.460 Y83.791 E0.0921
G1 X159.583 Y83.808 E0.0422
G1 X160.174 Y83.906 E0.2031
G1 X160.296 Y83.929 E0.0422
G1 X160.562 Y83.987 E0.0922
G1 X160.683 Y84.016 E0.0422
G1 X161.577 Y84.256 E0.3139
G1 X161.697 Y84.291 E0.0422
G1 X161.955 Y84.374 E0.0921
G1 X162.073 Y84.415 E0.0422
G1 X162.633 Y84.626 E0.2030
G1 X162.748 Y84.672 E0.0422
G1 X162.998 Y84.780 E0.0922
G1 X163.111 Y84.833 E0.0422
G1 X163.982 Y85.262 E0.3293
G1 X164.128 Y85.340 E0.0562
G1 X164.442 Y85.522 E0.1228
G1 X164.583 Y85.609 E0.0562
G1 X165.390 Y86.149 E0.3292
G1 X165.492 Y86.220 E0.0422
G1 X165.710 Y86.382 E0.0922
G1 X165.809 Y86.459 E0.0422
G1 X166.271 Y86.839 E0.2030
G1 X166.366 Y86.920 E0.0422
G1 X166.567 Y87.103 E0.0921
G1 X166.657 Y87.188 E0.0422
G1 X167.344 Y87.875 E0.3293
G1 X167.457 Y87.996 E0.0563
G1 X167.696 Y88.269 E0.1229
G1 X167.801 Y88.397 E0.0562
G1 X168.420 Y89.203 E0.3446
G1 X168.517 Y89.338 E0.0563
G1 X168.718 Y89.639 E0.1228
G1 X168.805 Y89.780 E0.0562
G1 X169.314 Y90.660 E0.3446
G1 X169.392 Y90.807 E0.0563
G1 X169.552 Y91.132 E0.1229
G1 X169.621 Y91.283 E0.0563
G1 X170.010 Y92.222 E0.3446
G1 X170.068 Y92.377 E0.0563
G1 X170.185 Y92.720 E0.1228
G1 X170.233 Y92.879 E0.0562
G1 X170.496 Y93.861 E0.3446
G1 X170.534 Y94.023 E0.0563
G1 X170.604 Y94.378 E0.1229
G1 X170.631 Y94.542 E0.0563
G1 X170.641 Y94.613 E0.0242
G1 X170.878 Y95.137 E0.1953
G1 X171.640 Y96.564 E0.5484
G1 X172.494 Y97.938 E0.5483
G1 X173.435 Y99.252 E0.5483
G1 X174.461 Y100.503 E0.5484
G1 X175.567 Y101.683 E0.5483
G1 X176.747 Y102.789 E0.5483
G1 X177.997 Y103.815 E0.5484
G1 X179.312 Y104.757 E0.5484
G1 X180.500 Y105.495 E0.4741
G1 X181.688 Y104.757 E0.4741
G1 X183.003 Y103.815 E0.5484
G1 X184.253 Y102.789 E0.5484
G1 X185.433 Y101.683 E0.5483
G1 X186.539 Y100.503 E0.5483
G1 X187.565 Y99.252 E0.5484
G1 X188.506 Y97.938 E0.5483
G1 X189.360 Y96.564 E0.5483
G1 X190.122 Y95.138 E0.5483
G1 X190.359 Y94.613 E0.1954
G1 X190.369 Y94.542 E0.0242
G1 X190.396 Y94.378 E0.0563
G1 X190.466 Y94.022 E0.1229
G1 X190.504 Y93.861 E0.0563
G1 X190.767 Y92.879 E0.3446
G1 X190.815 Y92.720 E0.0562
G1 X190.932 Y92.377 E0.1228
G1 X190.990 Y92.222 E0.0563
G1 X191.362 Y91.325 E0.3292
G1 X191.412 Y91.211 E0.0422
G1 X191.528 Y90.965 E0.0921
G1 X191.584 Y90.854 E0.0422
G1 X191.867 Y90.326 E0.2031
G1 X191.928 Y90.218 E0.0422
G1 X192.068 Y89.985 E0.0921
G1 X192.134 Y89.879 E0.0422
G1 X192.674 Y89.072 E0.3292
G1 X192.771 Y88.937 E0.0563
G1 X192.991 Y88.650 E0.1228
G1 X193.096 Y88.521 E0.0562
G1 X193.767 Y87.757 E0.3446
G1 X193.880 Y87.636 E0.0563
G1 X194.136 Y87.380 E0.1228
G1 X194.257 Y87.267 E0.0562
G1 X195.021 Y86.596 E0.3446
G1 X195.150 Y86.491 E0.0563
G1 X195.437 Y86.271 E0.1229
G1 X195.572 Y86.174 E0.0563
G1 X196.380 Y85.634 E0.3293
G1 X196.485 Y85.568 E0.0422
G1 X196.718 Y85.428 E0.0922
G1 X196.826 Y85.367 E0.0422
G1 X197.354 Y85.084 E0.2031
G1 X197.466 Y85.028 E0.0422
G1 X197.711 Y84.912 E0.0921
G1 X197.825 Y84.862 E0.0421
G1 X198.722 Y84.490 E0.3292
G1 X198.877 Y84.432 E0.0562
G1 X199.220 Y84.315 E0.1228
G1 X199.379 Y84.267 E0.0562
G1 X200.317 Y84.016 E0.3292
G1 X200.438 Y83.987 E0.0422
G1 X200.704 Y83.929 E0.0922
G1 X200.826 Y83.906 E0.0422
G1 X201.417 Y83.808 E0.2031
G1 X201.540 Y83.791 E0.0422
G1 X201.810 Y83.760 E0.0921
G1 X201.934 Y83.749 E0.0422
G1 X202.858 Y83.688 E0.3139
G1 X202.982 Y83.683 E0.0422
G1 X203.254 Y83.679 E0.0922
G1 X203.378 Y83.680 E0.0422
G1 X203.977 Y83.699 E0.2030
G1 X204.101 Y83.707 E0.0422
G1 X204.372 Y83.729 E0.0921
G1 X204.495 Y83.742 E0.0422
G1 X205.413 Y83.863 E0.3139
G1 X205.536 Y83.882 E0.0422
G1 X205.804 Y83.931 E0.0922
G1 X205.926 Y83.956 E0.0422
G1 X206.509 Y84.092 E0.2030
G1 X206.629 Y84.123 E0.0422
G1 X206.891 Y84.198 E0.0921
G1 X207.009 Y84.235 E0.0422
G1 X207.929 Y84.547 E0.3292
G1 X208.084 Y84.606 E0.0563
G1 X208.419 Y84.744 E0.1229
G1 X208.570 Y84.813 E0.0563
G1 X209.441 Y85.242 E0.3293
G1 X209.552 Y85.300 E0.0422
G1 X209.789 Y85.432 E0.0921
G1 X209.896 Y85.495 E0.0422
G1 X211.364 Y86.408 E0.5861
G1 X212.181 Y87.220 E0.3903
G1 X212.429 Y87.613 E0.1575
G1 X212.919 Y87.934 E0.1988
G1 X213.740 Y88.800 E0.4046
G1 X214.814 Y90.660 E0.7282
G1 X214.892 Y90.807 E0.0563
G1 X215.052 Y91.132 E0.1229
G1 X215.121 Y91.283 E0.0563
G1 X215.492 Y92.180 E0.3292
