; G-Code generated by Simplify3D(R) Version 4.1.2
; Nov 24, 2019 at 6:34:45 AM
; Settings Summary
;   processName,Process1
;   applyToModels,Tiny_Whoop_Coop_Sleeve_6mm
;   profileName,FF Sidewinder Dev (modified)
;   profileVersion,2019-08-07 04:26:04
;   baseProfile,Creality CR-10(2)
;   printMaterial,PLA
;   printQuality,Regular
;   printExtruders,
;   extruderName,Primary Extruder
;   extruderToolheadNumber,0
;   extruderDiameter,0.6
;   extruderAutoWidth,1
;   extruderWidth,0.72
;   extrusionMultiplier,0.98
;   extruderUseRetract,1
;   extruderRetractionDistance,2.1
;   extruderExtraRestartDistance,0
;   extruderRetractionZLift,0.5
;   extruderRetractionSpeed,3500
;   extruderUseCoasting,1
;   extruderCoastingDistance,0.2
;   extruderUseWipe,1
;   extruderWipeDistance,3
;   primaryExtruder,0
;   layerHeight,0.3
;   topSolidLayers,5
;   bottomSolidLayers,3
;   perimeterOutlines,1
;   printPerimetersInsideOut,1
;   startPointOption,2
;   startPointOriginX,0
;   startPointOriginY,500
;   sequentialIslands,0
;   spiralVaseMode,1
;   firstLayerHeightPercentage,134
;   firstLayerWidthPercentage,115
;   firstLayerUnderspeed,0.4
;   useRaft,0
;   raftExtruder,0
;   raftTopLayers,1
;   raftBaseLayers,1
;   raftOffset,3
;   raftSeparationDistance,0.34
;   raftTopInfill,100
;   aboveRaftSpeedMultiplier,0.3
;   useSkirt,1
;   skirtExtruder,0
;   skirtLayers,2
;   skirtOutlines,3
;   skirtOffset,3
;   usePrimePillar,0
;   primePillarExtruder,999
;   primePillarWidth,12
;   primePillarLocation,7
;   primePillarSpeedMultiplier,1
;   useOozeShield,0
;   oozeShieldExtruder,999
;   oozeShieldOffset,2
;   oozeShieldOutlines,1
;   oozeShieldSidewallShape,1
;   oozeShieldSidewallAngle,30
;   oozeShieldSpeedMultiplier,1
;   infillExtruder,0
;   internalInfillPattern,Rectilinear
;   externalInfillPattern,Rectilinear
;   infillPercentage,0
;   outlineOverlapPercentage,25
;   infillExtrusionWidthPercentage,110
;   minInfillLength,5
;   infillLayerInterval,1
;   internalInfillAngles,45,-45
;   overlapInternalInfillAngles,0
;   externalInfillAngles,45,-45
;   generateSupport,0
;   supportExtruder,0
;   supportInfillPercentage,30
;   supportExtraInflation,0.6
;   supportBaseLayers,3
;   denseSupportExtruder,0
;   denseSupportLayers,3
;   denseSupportInfillPercentage,80
;   supportLayerInterval,1
;   supportHorizontalPartOffset,0.4
;   supportUpperSeparationLayers,1
;   supportLowerSeparationLayers,1
;   supportType,0
;   supportGridSpacing,2
;   maxOverhangAngle,75
;   supportAngles,0
;   temperatureName,Primary Extruder,Heated Bed
;   temperatureNumber,0,0
;   temperatureSetpointCount,2,2
;   temperatureSetpointLayers,1,3,1,3
;   temperatureSetpointTemperatures,215,210,70,70
;   temperatureStabilizeAtStartup,1,1
;   temperatureHeatedBed,0,1
;   fanLayers,1,3,4,5
;   fanSpeeds,0,40,50,55
;   blipFanToFullPower,1
;   adjustSpeedForCooling,1
;   minSpeedLayerTime,15
;   minCoolingSpeedSlowdown,20
;   increaseFanForCooling,0
;   minFanLayerTime,45
;   maxCoolingFanSpeed,100
;   increaseFanForBridging,1
;   bridgingFanSpeed,60
;   use5D,1
;   relativeEdistances,1
;   allowEaxisZeroing,1
;   independentExtruderAxes,0
;   includeM10123,0
;   stickySupport,1
;   applyToolheadOffsets,0
;   gcodeXoffset,0
;   gcodeYoffset,0
;   gcodeZoffset,0
;   overrideMachineDefinition,1
;   machineTypeOverride,0
;   strokeXoverride,300
;   strokeYoverride,300
;   strokeZoverride,400
;   originOffsetXoverride,0
;   originOffsetYoverride,0
;   originOffsetZoverride,0
;   homeXdirOverride,-1
;   homeYdirOverride,-1
;   homeZdirOverride,-1
;   flipXoverride,1
;   flipYoverride,-1
;   flipZoverride,1
;   toolheadOffsets,0,0|0,0|0,0|0,0|0,0|0,0
;   overrideFirmwareConfiguration,1
;   firmwareTypeOverride,RepRap (Marlin/Repetier/Sprinter)
;   GPXconfigOverride,r2
;   baudRateOverride,115200
;   overridePrinterModels,1
;   printerModelsOverride
;   startingGcode,G28 ; home all axes,M117 Purge extruder,G92 E0 ; reset extruder,G1 Z1.0 F3000 ; move z up little to prevent scratching of surface,G1 X2 Y20 Z0.3 F5000.0 ; move to start-line position,G1 X2 Y200.0 Z0.3 F1500.0 E15 ; draw 1st line,G1 X2 Y200.0 Z0.4 F5000.0 ; move to side a little,G1 X2 Y20 Z0.4 F1500.0 E30 ; draw 2nd line,; G1 E27 F3000 ; retract filament 3mm,G92 E0 ; reset extruder,; done purging extruder,G1 Z1.0 F3000 ; move z up little to prevent scratching of surface,
;   layerChangeGcode,
;   retractionGcode,
;   toolChangeGcode,
;   endingGcode,M104 S0; turn off extruder,M140 S0 ; turn off bed,G1 X0 Y300 F1000 ; prepare for part removal,M84 ; disable motors,M106 S0 ; turn off fan,
;   exportFileFormat,gcode
;   celebration,0
;   celebrationSong,Star Wars
;   postProcessing,
;   defaultSpeed,3000
;   outlineUnderspeed,0.5
;   solidInfillUnderspeed,0.7
;   supportUnderspeed,0.8
;   rapidXYspeed,5000
;   rapidZspeed,1000
;   minBridgingArea,50
;   bridgingExtraInflation,0
;   bridgingExtrusionMultiplier,1
;   bridgingSpeedMultiplier,1
;   useFixedBridgingAngle,0
;   fixedBridgingAngle,0
;   applyBridgingToPerimeters,1
;   filamentDiameters,1.75|1.75|1.75|1.75|1.75|1.75
;   filamentPricesPerKg,17.99|46|46|46|46|46
;   filamentDensities,1.25|1.25|1.25|1.25|1.25|1.25
;   useMinPrintHeight,0
;   minPrintHeight,100.8
;   useMaxPrintHeight,0
;   maxPrintHeight,14
;   useDiaphragm,0
;   diaphragmLayerInterval,20
;   robustSlicing,1
;   mergeAllIntoSolid,0
;   onlyRetractWhenCrossingOutline,0
;   retractBetweenLayers,1
;   useRetractionMinTravel,1
;   retractionMinTravel,3
;   retractWhileWiping,1
;   onlyWipeOutlines,1
;   avoidCrossingOutline,1
;   maxMovementDetourFactor,3
;   toolChangeRetractionDistance,0
;   toolChangeExtraRestartDistance,0
;   toolChangeRetractionSpeed,600
;   externalThinWallType,0
;   internalThinWallType,1
;   thinWallAllowedOverlapPercentage,20
;   singleExtrusionMinLength,1
;   singleExtrusionMinPrintingWidthPercentage,50
;   singleExtrusionMaxPrintingWidthPercentage,200
;   singleExtrusionEndpointExtension,0.2
;   horizontalSizeCompensation,0
G90
M83
M106 S0
M140 S70
M190 S70
M104 S215 T0
M109 S215 T0
G28 ; home all axes
M117 Purge extruder
G92 E0 ; reset extruder
G1 Z1.0 F3000 ; move z up little to prevent scratching of surface
G1 X2 Y20 Z0.3 F5000.0 ; move to start-line position
G1 X2 Y200.0 Z0.3 F1500.0 E15 ; draw 1st line
G1 X2 Y200.0 Z0.4 F5000.0 ; move to side a little
G1 X2 Y20 Z0.4 F1500.0 E30 ; draw 2nd line
; G1 E27 F3000 ; retract filament 3mm
G92 E0 ; reset extruder
; done purging extruder
G1 Z1.0 F3000 ; move z up little to prevent scratching of surface
; process Process1
; layer 1, Z = 0.402
T0
G1 E-2.1000 F3500
; feature skirt
; tool H0.402 W0.828
G1 Z0.500 F1000
G1 X119.484 Y123.384 F5000
G1 Z0.402 F1000
G1 E2.1000 F3500
G1 X120.023 Y122.879 E0.1002 F1200
G1 X120.298 Y122.655 E0.0482
G1 X120.806 Y122.297 E0.0842
G1 X121.098 Y122.120 E0.0464
G1 X121.723 Y121.795 E0.0955
G1 X122.209 Y121.603 E0.0709
G1 X123.345 Y121.286 E0.1599
G1 X124.028 Y121.192 E0.0935
G1 X130.326 Y121.185 E0.8541
G1 X130.847 Y121.238 E0.0711
G1 X131.695 Y121.415 E0.1175
G1 X132.072 Y121.525 E0.0532
G1 X132.641 Y121.739 E0.0825
G1 X132.991 Y121.902 E0.0523
G1 X133.683 Y122.292 E0.1077
G1 X134.006 Y122.507 E0.0526
G1 X134.485 Y122.883 E0.0825
G1 X134.772 Y123.146 E0.0529
G1 X135.335 Y123.749 E0.1119
G1 X135.609 Y124.099 E0.0602
G1 X136.035 Y124.754 E0.1060
G1 X136.270 Y125.210 E0.0696
G1 X136.665 Y126.216 E0.1465
G1 X136.811 Y126.759 E0.0762
G1 X136.938 Y127.577 E0.1123
G1 X136.967 Y127.961 E0.0521
G1 X136.971 Y130.942 E0.4043
G1 X137.015 Y130.901 E0.0082
G1 X137.365 Y130.767 E0.0508
G1 X138.125 Y130.281 E0.1224
G1 X139.519 Y129.873 E0.1970
G1 X160.483 Y129.873 E2.8431
G1 X161.880 Y130.283 E0.1974
G1 X162.635 Y130.767 E0.1218
G1 X162.987 Y130.903 E0.0512
G1 X163.029 Y130.941 E0.0076
G1 X163.033 Y127.961 E0.4042
G1 X163.062 Y127.577 E0.0521
G1 X163.175 Y126.843 E0.1007
G1 X163.264 Y126.463 E0.0529
G1 X163.464 Y125.834 E0.0895
G1 X163.607 Y125.477 E0.0522
G1 X163.937 Y124.810 E0.1009
G1 X164.138 Y124.472 E0.0533
G1 X164.533 Y123.910 E0.0931
G1 X164.814 Y123.577 E0.0591
G1 X165.462 Y122.928 E0.1244
G1 X165.867 Y122.599 E0.0708
G1 X166.625 Y122.103 E0.1229
G1 X167.044 Y121.881 E0.0644
G1 X167.811 Y121.564 E0.1125
G1 X168.264 Y121.424 E0.0644
G1 X169.148 Y121.239 E0.1225
G1 X169.662 Y121.186 E0.0700
G1 X175.452 Y121.173 E0.7853
G1 X175.678 Y121.182 E0.0307
G1 X176.337 Y121.240 E0.0897
G1 X176.718 Y121.303 E0.0524
G1 X177.359 Y121.459 E0.0895
G1 X177.729 Y121.580 E0.0528
G1 X178.416 Y121.865 E0.1009
G1 X178.763 Y122.041 E0.0528
G1 X179.327 Y122.383 E0.0895
G1 X179.641 Y122.608 E0.0524
G1 X180.230 Y123.103 E0.1043
G1 X180.542 Y123.415 E0.0599
G1 X181.037 Y124.004 E0.1043
G1 X181.262 Y124.318 E0.0524
G1 X181.604 Y124.882 E0.0895
G1 X181.780 Y125.229 E0.0528
G1 X182.065 Y125.916 E0.1009
G1 X182.186 Y126.286 E0.0528
G1 X182.342 Y126.927 E0.0895
G1 X182.405 Y127.308 E0.0524
G1 X182.462 Y127.963 E0.0892
G1 X182.472 Y128.183 E0.0297
G1 X182.476 Y135.187 E0.9499
G1 X182.507 Y135.435 E0.0340
G1 X182.552 Y135.526 E0.0137
G1 X182.559 Y135.537 E0.0018
G1 X182.636 Y135.640 E0.0174
G1 X182.679 Y135.687 E0.0087
G1 X183.776 Y136.682 E0.2008
G1 X186.225 Y138.672 E0.4280
G1 X187.210 Y140.739 E0.3105
G1 X187.213 Y155.957 E2.0639
G1 X182.566 Y158.953 E0.7498
G1 X180.843 Y158.172 E0.2565
G1 X180.435 Y158.675 E0.0879
G1 X180.173 Y158.953 E0.0517
G1 X179.352 Y159.701 E0.1506
G1 X179.039 Y159.945 E0.0539
G1 X178.128 Y160.545 E0.1478
G1 X177.777 Y160.739 E0.0545
G1 X176.763 Y161.196 E0.1508
G1 X176.407 Y161.326 E0.0515
G1 X175.489 Y161.585 E0.1294
G1 X175.177 Y161.652 E0.0432
G1 X174.388 Y161.770 E0.1083
G1 X174.151 Y161.794 E0.0323
G1 X173.254 Y161.844 E0.1218
G1 X173.219 Y161.853 E0.0049
G1 X173.166 Y161.872 E0.0077
G1 X173.109 Y161.900 E0.0085
G1 X173.080 Y161.921 E0.0049
G1 X173.019 Y161.978 E0.0113
G1 X172.984 Y162.019 E0.0073
G1 X172.966 Y162.046 E0.0043
G1 X172.917 Y162.147 E0.0153
G1 X172.858 Y162.322 E0.0251
G1 X171.129 Y168.777 E0.9062
G1 X168.398 Y170.872 E0.4668
G1 X131.602 Y170.872 E4.9902
G1 X128.871 Y168.777 E0.4668
G1 X127.142 Y162.323 E0.9062
G1 X127.083 Y162.147 E0.0251
G1 X127.034 Y162.046 E0.0153
G1 X127.016 Y162.019 E0.0043
G1 X126.981 Y161.978 E0.0074
G1 X126.920 Y161.921 E0.0113
G1 X126.891 Y161.900 E0.0049
G1 X126.834 Y161.872 E0.0085
G1 X126.781 Y161.853 E0.0077
G1 X126.746 Y161.844 E0.0049
G1 X125.849 Y161.794 E0.1218
G1 X125.612 Y161.770 E0.0323
G1 X124.823 Y161.652 E0.1083
G1 X124.511 Y161.585 E0.0432
G1 X123.593 Y161.326 E0.1294
G1 X123.237 Y161.196 E0.0515
G1 X122.223 Y160.739 E0.1508
G1 X121.872 Y160.545 E0.0545
G1 X120.961 Y159.945 E0.1478
G1 X120.647 Y159.701 E0.0539
G1 X119.827 Y158.953 E0.1506
G1 X119.565 Y158.675 E0.0517
G1 X119.159 Y158.174 E0.0875
G1 X117.448 Y158.956 E0.2552
G1 X112.787 Y155.962 E0.7512
G1 X112.790 Y140.747 E2.0635
G1 X113.762 Y138.691 E0.3084
G1 X116.588 Y136.367 E0.4963
G1 X117.176 Y135.836 E0.1074
G1 X117.334 Y135.676 E0.0305
G1 X117.362 Y135.644 E0.0058
G1 X117.443 Y135.531 E0.0188
G1 X117.473 Y135.480 E0.0080
G1 X117.498 Y135.393 E0.0124
G1 X117.524 Y135.187 E0.0282
G1 X117.528 Y128.183 E0.9499
G1 X117.538 Y127.964 E0.0297
G1 X117.595 Y127.308 E0.0892
G1 X117.658 Y126.927 E0.0524
G1 X117.814 Y126.286 E0.0895
G1 X117.935 Y125.916 E0.0528
G1 X118.252 Y125.150 E0.1125
G1 X118.523 Y124.659 E0.0760
G1 X119.145 Y123.774 E0.1467
G1 X119.484 Y123.384 E0.0701
G1 X120.082 Y123.959 F5000
G1 X120.568 Y123.503 E0.0905 F1200
G1 X120.799 Y123.315 E0.0403
G1 X121.260 Y122.990 E0.0765
G1 X121.504 Y122.842 E0.0388
G1 X122.067 Y122.550 E0.0859
G1 X122.473 Y122.389 E0.0593
G1 X123.514 Y122.098 E0.1465
G1 X124.085 Y122.020 E0.0782
G1 X130.284 Y122.013 E0.8406
G1 X130.720 Y122.058 E0.0595
G1 X131.495 Y122.219 E0.1073
G1 X131.810 Y122.311 E0.0445
G1 X132.320 Y122.503 E0.0739
G1 X132.613 Y122.639 E0.0438
G1 X133.250 Y122.998 E0.0992
G1 X133.520 Y123.178 E0.0440
G1 X133.948 Y123.515 E0.0739
G1 X134.189 Y123.735 E0.0443
G1 X134.706 Y124.288 E0.1026
G1 X134.935 Y124.581 E0.0504
G1 X135.318 Y125.170 E0.0954
G1 X135.515 Y125.552 E0.0583
G1 X135.878 Y126.476 E0.1346
G1 X136.000 Y126.930 E0.0637
G1 X136.114 Y127.672 E0.1019
G1 X136.139 Y127.993 E0.0436
G1 X136.145 Y132.854 E0.6592
G1 X136.220 Y132.764 E0.0158
G1 X136.227 Y132.757 E0.0014
G1 X136.241 Y132.741 E0.0028
G1 X136.336 Y132.644 E0.0184
G1 X136.425 Y132.552 E0.0173
G1 X136.441 Y132.537 E0.0030
G1 X136.468 Y132.510 E0.0051
G1 X136.566 Y132.424 E0.0178
G1 X137.457 Y131.619 E0.1628
G1 X137.740 Y131.510 E0.0412
G1 X138.471 Y131.042 E0.1176
G1 X139.638 Y130.701 E0.1648
G1 X160.364 Y130.701 E2.8108
G1 X161.533 Y131.044 E0.1652
G1 X162.259 Y131.510 E0.1170
G1 X162.546 Y131.620 E0.0417
G1 X163.391 Y132.386 E0.1547
G1 X163.523 Y132.501 E0.0237
G1 X163.562 Y132.541 E0.0076
G1 X163.583 Y132.560 E0.0037
G1 X163.668 Y132.648 E0.0167
G1 X163.745 Y132.726 E0.0149
G1 X163.759 Y132.743 E0.0030
G1 X163.786 Y132.771 E0.0052
G1 X163.855 Y132.853 E0.0146
G1 X163.861 Y127.993 E0.6591
G1 X163.886 Y127.672 E0.0436
G1 X163.989 Y127.001 E0.0921
G1 X164.063 Y126.683 E0.0443
G1 X164.243 Y126.114 E0.0809
G1 X164.364 Y125.815 E0.0437
G1 X164.665 Y125.205 E0.0923
G1 X164.833 Y124.922 E0.0446
G1 X165.189 Y124.416 E0.0839
G1 X165.424 Y124.137 E0.0495
G1 X166.017 Y123.544 E0.1137
G1 X166.356 Y123.269 E0.0592
G1 X167.046 Y122.817 E0.1118
G1 X167.397 Y122.631 E0.0538
G1 X168.092 Y122.343 E0.1020
G1 X168.471 Y122.226 E0.0539
G1 X169.276 Y122.058 E0.1115
G1 X169.706 Y122.014 E0.0585
G1 X175.435 Y122.001 E0.7770
G1 X175.624 Y122.009 E0.0257
G1 X176.234 Y122.062 E0.0829
G1 X176.552 Y122.114 E0.0438
G1 X177.132 Y122.256 E0.0809
G1 X177.441 Y122.357 E0.0441
G1 X178.070 Y122.618 E0.0923
G1 X178.360 Y122.765 E0.0441
G1 X178.870 Y123.074 E0.0809
G1 X179.133 Y123.263 E0.0438
G1 X179.670 Y123.714 E0.0951
G1 X179.931 Y123.975 E0.0501
G1 X180.382 Y124.512 E0.0951
G1 X180.571 Y124.775 E0.0438
G1 X180.880 Y125.285 E0.0809
G1 X181.028 Y125.575 E0.0441
G1 X181.288 Y126.204 E0.0923
G1 X181.389 Y126.513 E0.0441
G1 X181.531 Y127.093 E0.0809
G1 X181.583 Y127.411 E0.0438
G1 X181.636 Y128.018 E0.0825
G1 X181.644 Y128.201 E0.0249
G1 X181.648 Y135.239 E0.9544
G1 X181.696 Y135.620 E0.0522
G1 X181.707 Y135.662 E0.0058
G1 X181.740 Y135.753 E0.0131
G1 X181.827 Y135.928 E0.0265
G1 X181.875 Y136.006 E0.0124
G1 X181.997 Y136.167 E0.0274
G1 X182.092 Y136.273 E0.0193
G1 X183.237 Y137.310 E0.2095
G1 X185.558 Y139.196 E0.4057
G1 X186.382 Y140.926 E0.2598
G1 X186.385 Y155.506 E1.9773
G1 X182.497 Y158.012 E0.6274
G1 X180.576 Y157.142 E0.2860
G1 X180.516 Y157.237 E0.0153
G1 X180.371 Y157.439 E0.0338
G1 X179.811 Y158.130 E0.1206
G1 X179.592 Y158.362 E0.0433
G1 X178.819 Y159.067 E0.1420
G1 X178.556 Y159.272 E0.0451
G1 X177.700 Y159.835 E0.1390
G1 X177.406 Y159.997 E0.0456
G1 X176.451 Y160.429 E0.1421
G1 X176.153 Y160.537 E0.0431
G1 X175.289 Y160.781 E0.1217
G1 X175.029 Y160.837 E0.0361
G1 X174.284 Y160.948 E0.1021
G1 X174.086 Y160.969 E0.0271
G1 X173.140 Y161.021 E0.1284
G1 X173.111 Y161.026 E0.0040
G1 X172.972 Y161.061 E0.0195
G1 X172.840 Y161.110 E0.0190
G1 X172.706 Y161.175 E0.0202
G1 X172.655 Y161.206 E0.0082
G1 X172.552 Y161.282 E0.0172
G1 X172.421 Y161.403 E0.0243
G1 X172.320 Y161.521 E0.0210
G1 X172.245 Y161.634 E0.0184
G1 X172.149 Y161.833 E0.0300
G1 X172.065 Y162.084 E0.0358
G1 X170.402 Y168.291 E0.8715
G1 X168.117 Y170.044 E0.3906
G1 X131.883 Y170.044 E4.9139
G1 X129.598 Y168.291 E0.3906
G1 X127.935 Y162.084 E0.8715
G1 X127.851 Y161.833 E0.0358
G1 X127.755 Y161.634 E0.0300
G1 X127.680 Y161.521 E0.0185
G1 X127.579 Y161.403 E0.0210
G1 X127.448 Y161.282 E0.0243
G1 X127.345 Y161.206 E0.0172
G1 X127.294 Y161.175 E0.0082
G1 X127.160 Y161.110 E0.0202
G1 X127.028 Y161.061 E0.0190
G1 X126.889 Y161.026 E0.0195
G1 X126.860 Y161.021 E0.0040
G1 X125.914 Y160.969 E0.1284
G1 X125.716 Y160.948 E0.0271
G1 X124.971 Y160.837 E0.1021
G1 X124.711 Y160.781 E0.0361
G1 X123.847 Y160.537 E0.1217
G1 X123.549 Y160.429 E0.0431
G1 X122.594 Y159.997 E0.1421
G1 X122.300 Y159.835 E0.0456
G1 X121.444 Y159.272 E0.1390
G1 X121.181 Y159.067 E0.0451
G1 X120.408 Y158.362 E0.1420
G1 X120.189 Y158.130 E0.0433
